svgs/sharp-regular/chart-bullet.svg

<svg xmlns="http://www.w3.org/2000/svg" viewBox="0 0 512 512"><!--! Font Awesome Pro 6.6.0 by @fontawesome - https://fontawesome.com License - https://fontawesome.com/license (Commercial License) Copyright 2024 Fonticons, Inc. --><path d="M288 32l0 24 0 8 176 0 48 0 0 48 0 64 0 48-48 0-176 0 0 8 0 24-48 0 0-24 0-8L48 224 0 224l0-48 0-64L0 64l48 0 192 0 0-8 0-24 48 0zM160 112l0 64 80 0 0-64-80 0zm128 0l0 64 176 0 0-64-176 0zm-176 0l-64 0 0 64 64 0 0-64zM384 256l0 24 0 8 80 0 48 0 0 48 0 64 0 48-48 0-80 0 0 8 0 24-48 0 0-24 0-8L48 448 0 448l0-48 0-64 0-48 48 0 288 0 0-8 0-24 48 0zM224 336l0 64 112 0 0-64-112 0zm160 0l0 64 80 0 0-64-80 0zm-208 0L48 336l0 64 128 0 0-64z"/></svg>

<svg xmlns="http://www.w3.org/2000/svg" viewBox="0 0 512 512"><!--! Font Awesome Pro 6.4.2 by @fontawesome - https://fontawesome.com License - https://fontawesome.com/license (Commercial License) Copyright 2023 Fonticons, Inc. --><path d="M288 32V56v8H464h48v48 64 48H464 288v8 24H240V232v-8H48 0V176 112 64H48 240V56 32h48zM160 112v64h80V112H160zm128 0v64H464V112H288zm-176 0H48v64h64V112zM384 256v24 8h80 48v48 64 48H464 384v8 24H336V456v-8H48 0V400 336 288H48 336v-8V256h48zM224 336v64H336V336H224zm160 0v64h80V336H384zm-208 0H48v64H176V336z"/></svg>
